X: 27
T: Toss The Feathers
Z: tziguk
S: https://thesession.org/tunes/138#setting53480
R: reel
M: 4/4
L: 1/8
K: Dmix
|:D2 (3FED AD FD|ABcA GE E2|D2 (3FED AD FD|dfed cAGE|
D2 (3FED AD FD|ABcA GE E2|cABG A2 (3ABc|1d2 ed cAGE:|2d2 ed cAGB||
|:Ad ~d2 Ad ~d2|Ad ~d2 ed^cd|eaag a3g|eaag ed^cd|
efge afge|fde^c d=cAB|=cABG A2 (3ABc|1cded cAGB:|2d2ed cAGE||

